file/researchgate.svg

<svg clip-rule="evenodd" fill-rule="evenodd" stroke-linejoin="round" stroke-miterlimit="1.41421" viewBox="0 0 560 400" xmlns="http://www.w3.org/2000/svg"><path d="m113.8 151.8c.7-4.1 3.2-8.4 8.3-8.4 4.4 0 6.4 4 6.4 7.7 0 .6-.1.8-.8.8zm8.6-13.2c-9.3 0-16 8.2-16 19.4 0 11.4 6.1 18.2 16.3 18.2 5.5 0 9.9-2.4 11.2-4.8l.1-.3-.4-3.1-1 .5c-2.4 1.2-5.4 1.9-8.7 1.9-7.8 0-10.6-6.8-10.6-13.1v-1.2h22.1l.1-.7c.1-1 .1-1.7.1-2.7.2-6.7-4-14.1-13.2-14.1zm232.3-7.4h-3.6l-.1.6c-1 3.9-2.4 6.5-6.7 8.8l-.4.2v3.5h4.2v22.8c0 6.4 2.5 9.1 8.3 9.1 3.5 0 7.1-1.4 8.2-3.3l.1-.3-.5-2.6-.9.3c-.9.3-2.9.8-4.8.8-2.5 0-3.8-.9-3.8-5.2v-21.6h9.9v-4.9h-9.9zm-198.3 28.5c-.1 2-.2 6-.2 8.2-1.2 1.3-3.4 2.6-6.3 2.6-3 0-4.8-1.8-4.8-4.8 0-4.1 3.2-6.1 9.4-6.1h.1c.6.1 1.3.1 1.8.1m6.6 8.1c0-3.3.1-6.3.1-9.2.1-2.7.1-5.4.1-8 0-7.7-4.5-12-12.4-12-4.1 0-8.2 2.2-10 4.3l-.3.3.6 3.5 1-.5c2.2-1.2 4.6-1.8 7.5-1.8 4.8 0 6.9 2.3 6.9 7.5v3.3c-1-.1-2.2-.1-2.9-.1-9.3 0-15.3 4.6-15.3 11.6 0 5.6 4.1 9.5 9.8 9.5 3.7 0 6.9-1.9 8.7-3.8.7 2.4 2.7 3.8 5.6 3.8 2.2 0 4.4-.5 5.7-1.4l.3-.3v-3.2h-.8c-4 .1-4.6-.7-4.6-3.5m28.4-29.2c-2.4 0-5.6 1.6-7.8 3.7v-4.4l-1.1.5c-3.3 1.5-5.8 2.3-9.4 3.3l-.6.2v2.9l.7.1c3.9.8 3.9 1 3.9 4.6v17.2c0 4.6-.5 4.6-1.6 4.8l-2.9.5v3.5h.9c.5 0 1.1-.1 1.8-.1 1.5-.1 3.3-.2 5.2-.2 2 0 4.6.1 6.5.2l2.4.1v-3.5l-3.9-.5c-1-.1-1.6-.2-1.6-4.8v-19.6c1.8-1.4 4.3-2.3 6.5-2.3 1.3 0 2.8.3 3.4.5l1 .5.8-6.7-.7-.2c-1.2-.1-2.2-.3-3.5-.3m31 29.9c-1.9 1.3-4.6 2-7.5 2-7 0-11.4-5-11.4-13.2 0-8.3 4.1-14.1 9.9-14.1 3.9 0 5.7 1.8 5.9 6l.1.8h4.2v-.8c0-2.4.1-5.7.3-8l.1-.6-.6-.2c-2.2-.8-5.5-1.8-9.4-1.8-9.5 0-17.3 8.7-17.3 19.4 0 11.2 6.3 18.2 16.5 18.2 5.2 0 9.4-2.5 10.9-4.9l.1-.3-.7-3.3zm107.1-8.8c-.1 2-.2 6-.2 8.2-1.2 1.3-3.4 2.6-6.3 2.6-3 0-4.8-1.8-4.8-4.8 0-4.1 3.2-6.1 9.4-6.1h.1c.5.1 1.2.1 1.8.1m6.5 8.1c0-3.3.1-6.3.1-9.2.1-2.7.1-5.4.1-8 0-7.7-4.5-12-12.4-12-4.1 0-8.2 2.2-10 4.3l-.3.3.6 3.5 1-.5c2.2-1.2 4.6-1.8 7.5-1.8 4.8 0 6.9 2.3 6.9 7.5v3.3c-1-.1-2.2-.1-2.9-.1-9.3 0-15.3 4.6-15.3 11.6 0 5.6 4.1 9.5 9.8 9.5 3.7 0 6.9-1.9 8.7-3.8.7 2.4 2.7 3.8 5.6 3.8 2.2 0 4.4-.5 5.7-1.4l.3-.3v-3.2h-.8c-3.9.1-4.6-.7-4.6-3.5m-76.4-1.1v-15.2c0-5.5-1.2-12.8-11.2-12.8-3.3 0-6.7 1.8-9 3.6v-18.8l-1.2.6c-3.3 1.7-5.8 2.7-9.4 3.7l-.6.2v2.9l.7.1c3.9.8 3.9 1 3.9 4.6v31.1c0 4.6-.5 4.6-1.6 4.8l-2.9.5v3.5l2-.1c1.6-.1 3.7-.1 5.9-.1s4.4.1 6.1.2l1.8.1v-3.6l-2.9-.5c-1-.2-1.6-.3-1.6-4.8v-19.9c1.2-.8 4.1-2.4 7.2-2.4 4.7 0 6.4 2 6.4 7.8v14.5c0 4.6-.5 4.6-1.6 4.8l-2.9.5v3.5l2-.1c1.6-.1 3.7-.1 5.9-.1s4.4.1 6.1.2l1.8.1v-3.6l-2.9-.5c-1.4-.2-2-.2-2-4.8m114.6-14.9c.7-4.1 3.2-8.4 8.3-8.4 4.4 0 6.4 4 6.4 7.7 0 .6-.1.8-.8.8zm8.6-13.2c-9.3 0-16 8.2-16 19.4 0 11.4 6.1 18.2 16.3 18.2 5.5 0 9.9-2.4 11.2-4.8l.1-.3-.4-3.1-1 .5c-2.4 1.2-5.4 1.9-8.7 1.9-7.8 0-10.6-6.8-10.6-13.1v-1.2h22.3l.1-.7c.1-1 .1-1.7.1-2.7 0-6.7-4.2-14.1-13.4-14.1zm-82.3 15.7c-3.4 0-6-.1-7.7-.2l-1.4-.1v3.5l3.3.6c1.1.2 2.2.5 2.2 4.8v7.5c-2.2 1.1-5.5 1.3-7.4 1.3-8.7 0-14.3-7.5-14.3-19 0-11.4 5.8-19 14.4-19 5.6 0 8.8 3 9.2 8.4l.1.7h4.3l-.2-.8c-.3-3.8-.3-7-.4-10v-.5l-.5-.2c-2.6-.9-6.6-2.2-12.4-2.2-12.8 0-22.1 10.1-22.1 24.2s8.3 23.2 21.1 23.2c6.1 0 12.2-1.4 14.5-2.5l.5-.2v-10.8c0-4.2.7-4.5 1.9-4.8l2.7-.5v-3.5l-1.9.1zm-249-2.5c.7-4.1 3.2-8.4 8.3-8.4 4.4 0 6.4 4 6.4 7.7 0 .6-.1.8-.8.8zm8.6-13.2c-9.3 0-16 8.2-16 19.4 0 11.4 6.1 18.2 16.3 18.2 5.5 0 9.9-2.4 11.2-4.8l.1-.3-.4-3.1-1 .5c-2.4 1.2-5.4 1.9-8.7 1.9-7.8 0-10.6-6.8-10.6-13.1v-1.2h22.1l.1-.7c.1-1 .1-1.7.1-2.7.2-6.7-4-14.1-13.2-14.1zm30.8 14.9c-4.2-1.6-6.7-2.8-6.7-5.8 0-4.1 3.8-4.6 6-4.6 4.1 0 5.9 1.8 6.2 6.1l.1.7h4.1l-.1-.9c-.2-3-.3-4.8-.1-7.8v-.6l-.5-.2c-2.2-.9-5.9-1.9-9.4-1.9-7.3 0-12.4 4.1-12.4 10.1 0 7.5 5.8 9.6 10.3 11.3 4.3 1.6 6.9 2.7 6.9 6 0 3.4-2.6 5.6-6.5 5.6-5.3 0-6.5-2.3-7.1-7.1l-.1-.7h-4.1l.1.9c.2 3.3.3 5.9.2 9.2v.6l.6.2c3.4 1.1 6.7 1.6 10.5 1.6 7.1 0 12.7-4.9 12.7-11.1-.1-7.5-6-9.8-10.7-11.6m-61.6-11c0 5.2-3.5 8.5-9 8.5-1.9 0-2.9-.1-4.1-.1v-16.2c1.4-.1 3.2-.1 4.8-.1 5.4-.1 8.3 2.7 8.3 7.9m8 26.1c-3.4-3.8-7.1-9-9.9-13.9 5.3-1.8 9.3-7.1 9.3-12.6 0-7.7-5.4-12.4-14.6-12.4-2.2 0-4.1.1-6 .1-1.6.1-3 .1-4.4.1-2.7 0-5.5 0-7.2-.1l-.9-.1v3.5l3.3.6c1.1.2 2.2.5 2.2 4.8v27.7c0 4.4-1 4.6-2.2 4.8l-3.3.6v3.5l1.6-.1c1.9-.1 4.7-.2 7.5-.2 3.1 0 7.2.1 8.8.2h.9v-3.5l-4.3-.6c-1.1-.2-2.2-.3-2.2-4.8v-10.7c1.2.1 2.4.1 4.1.1 4.3 7.7 8.2 13.3 10.3 15.8 2.4 2.9 5.8 4.4 9.8 4.4 1.3 0 2.7-.3 3.5-.7l.5-.2v-2.9h-.8c-1.8 0-4-1.3-6-3.4" fill="#0cb" fill-rule="nonzero" transform="matrix(1.27356 0 0 1.27356 25.4152 8.96587)"/></svg>

<?xml version="1.0" encoding="UTF-8" standalone="no"?>
<!DOCTYPE svg PUBLIC "-//W3C//DTD SVG 1.1//EN" "http://www.w3.org/Graphics/SVG/1.1/DTD/svg11.dtd">
<svg width="100%" height="100%" viewBox="0 0 560 400" version="1.1" xmlns="http://www.w3.org/2000/svg" xmlns:xlink="http://www.w3.org/1999/xlink" xml:space="preserve" xmlns:serif="http://www.serif.com/" style="fill-rule:evenodd;clip-rule:evenodd;stroke-linejoin:round;stroke-miterlimit:1.41421;">
    <g id="Page-1" transform="matrix(1.27356,0,0,1.27356,25.4152,8.96587)">
        <path d="M113.8,151.8C114.5,147.7 117,143.4 122.1,143.4C126.5,143.4 128.5,147.4 128.5,151.1C128.5,151.7 128.4,151.9 127.7,151.9L113.8,151.8ZM122.4,138.6C113.1,138.6 106.4,146.8 106.4,158C106.4,169.4 112.5,176.2 122.7,176.2C128.2,176.2 132.6,173.8 133.9,171.4L134,171.1L133.6,168L132.6,168.5C130.2,169.7 127.2,170.4 123.9,170.4C116.1,170.4 113.3,163.6 113.3,157.3L113.3,156.1L135.4,156.1L135.5,155.4C135.6,154.4 135.6,153.7 135.6,152.7C135.8,146 131.6,138.6 122.4,138.6ZM354.7,131.2L351.1,131.2L351,131.8C350,135.7 348.6,138.3 344.3,140.6L343.9,140.8L343.9,144.3L348.1,144.3L348.1,167.1C348.1,173.5 350.6,176.2 356.4,176.2C359.9,176.2 363.5,174.8 364.6,172.9L364.7,172.6L364.2,170L363.3,170.3C362.4,170.6 360.4,171.1 358.5,171.1C356,171.1 354.7,170.2 354.7,165.9L354.7,144.3L364.6,144.3L364.6,139.4L354.7,139.4L354.7,131.2ZM156.4,159.7C156.3,161.7 156.2,165.7 156.2,167.9C155,169.2 152.8,170.5 149.9,170.5C146.9,170.5 145.1,168.7 145.1,165.7C145.1,161.6 148.3,159.6 154.5,159.6L154.6,159.6C155.2,159.7 155.9,159.7 156.4,159.7M163,167.8C163,164.5 163.1,161.5 163.1,158.6C163.2,155.9 163.2,153.2 163.2,150.6C163.2,142.9 158.7,138.6 150.8,138.6C146.7,138.6 142.6,140.8 140.8,142.9L140.5,143.2L141.1,146.7L142.1,146.2C144.3,145 146.7,144.4 149.6,144.4C154.4,144.4 156.5,146.7 156.5,151.9L156.5,155.2C155.5,155.1 154.3,155.1 153.6,155.1C144.3,155.1 138.3,159.7 138.3,166.7C138.3,172.3 142.4,176.2 148.1,176.2C151.8,176.2 155,174.3 156.8,172.4C157.5,174.8 159.5,176.2 162.4,176.2C164.6,176.2 166.8,175.7 168.1,174.8L168.4,174.5L168.4,171.3L167.6,171.3C163.6,171.4 163,170.6 163,167.8M191.4,138.6C189,138.6 185.8,140.2 183.6,142.3L183.6,137.9L182.5,138.4C179.2,139.9 176.7,140.7 173.1,141.7L172.5,141.9L172.5,144.8L173.2,144.9C177.1,145.7 177.1,145.9 177.1,149.5L177.1,166.7C177.1,171.3 176.6,171.3 175.5,171.5L172.6,172L172.6,175.5L173.5,175.5C174,175.5 174.6,175.4 175.3,175.4C176.8,175.3 178.6,175.2 180.5,175.2C182.5,175.2 185.1,175.3 187,175.4L189.4,175.5L189.4,172L185.5,171.5C184.5,171.4 183.9,171.3 183.9,166.7L183.9,147.1C185.7,145.7 188.2,144.8 190.4,144.8C191.7,144.8 193.2,145.1 193.8,145.3L194.8,145.8L195.6,139.1L194.9,138.9C193.7,138.8 192.7,138.6 191.4,138.6M222.4,168.5C220.5,169.8 217.8,170.5 214.9,170.5C207.9,170.5 203.5,165.5 203.5,157.3C203.5,149 207.6,143.2 213.4,143.2C217.3,143.2 219.1,145 219.3,149.2L219.4,150L223.6,150L223.6,149.2C223.6,146.8 223.7,143.5 223.9,141.2L224,140.6L223.4,140.4C221.2,139.6 217.9,138.6 214,138.6C204.5,138.6 196.7,147.3 196.7,158C196.7,169.2 203,176.2 213.2,176.2C218.4,176.2 222.6,173.7 224.1,171.3L224.2,171L223.5,167.7L222.4,168.5ZM329.5,159.7C329.4,161.7 329.3,165.7 329.3,167.9C328.1,169.2 325.9,170.5 323,170.5C320,170.5 318.2,168.7 318.2,165.7C318.2,161.6 321.4,159.6 327.6,159.6L327.7,159.6C328.2,159.7 328.9,159.7 329.5,159.7M336,167.8C336,164.5 336.1,161.5 336.1,158.6C336.2,155.9 336.2,153.2 336.2,150.6C336.2,142.9 331.7,138.6 323.8,138.6C319.7,138.6 315.6,140.8 313.8,142.9L313.5,143.2L314.1,146.7L315.1,146.2C317.3,145 319.7,144.4 322.6,144.4C327.4,144.4 329.5,146.7 329.5,151.9L329.5,155.2C328.5,155.1 327.3,155.1 326.6,155.1C317.3,155.1 311.3,159.7 311.3,166.7C311.3,172.3 315.4,176.2 321.1,176.2C324.8,176.2 328,174.3 329.8,172.4C330.5,174.8 332.5,176.2 335.4,176.2C337.6,176.2 339.8,175.7 341.1,174.8L341.4,174.5L341.4,171.3L340.6,171.3C336.7,171.4 336,170.6 336,167.8M259.6,166.7L259.6,151.5C259.6,146 258.4,138.7 248.4,138.7C245.1,138.7 241.7,140.5 239.4,142.3L239.4,123.5L238.2,124.1C234.9,125.8 232.4,126.8 228.8,127.8L228.2,128L228.2,130.9L228.9,131C232.8,131.8 232.8,132 232.8,135.6L232.8,166.7C232.8,171.3 232.3,171.3 231.2,171.5L228.3,172L228.3,175.5L230.3,175.4C231.9,175.3 234,175.3 236.2,175.3C238.4,175.3 240.6,175.4 242.3,175.5L244.1,175.6L244.1,172L241.2,171.5C240.2,171.3 239.6,171.2 239.6,166.7L239.6,146.8C240.8,146 243.7,144.4 246.8,144.4C251.5,144.4 253.2,146.4 253.2,152.2L253.2,166.7C253.2,171.3 252.7,171.3 251.6,171.5L248.7,172L248.7,175.5L250.7,175.4C252.3,175.3 254.4,175.3 256.6,175.3C258.8,175.3 261,175.4 262.7,175.5L264.5,175.6L264.5,172L261.6,171.5C260.2,171.3 259.6,171.3 259.6,166.7M374.2,151.8C374.9,147.7 377.4,143.4 382.5,143.4C386.9,143.4 388.9,147.4 388.9,151.1C388.9,151.7 388.8,151.9 388.1,151.9L374.2,151.8ZM382.8,138.6C373.5,138.6 366.8,146.8 366.8,158C366.8,169.4 372.9,176.2 383.1,176.2C388.6,176.2 393,173.8 394.3,171.4L394.4,171.1L394,168L393,168.5C390.6,169.7 387.6,170.4 384.3,170.4C376.5,170.4 373.7,163.6 373.7,157.3L373.7,156.1L396,156.1L396.1,155.4C396.2,154.4 396.2,153.7 396.2,152.7C396.2,146 392,138.6 382.8,138.6ZM300.5,154.3C297.1,154.3 294.5,154.2 292.8,154.1L291.4,154L291.4,157.5L294.7,158.1C295.8,158.3 296.9,158.6 296.9,162.9L296.9,170.4C294.7,171.5 291.4,171.7 289.5,171.7C280.8,171.7 275.2,164.2 275.2,152.7C275.2,141.3 281,133.7 289.6,133.7C295.2,133.7 298.4,136.7 298.8,142.1L298.9,142.8L303.2,142.8L303,142C302.7,138.2 302.7,135 302.6,132L302.6,131.5L302.1,131.3C299.5,130.4 295.5,129.1 289.7,129.1C276.9,129.1 267.6,139.2 267.6,153.3C267.6,167.4 275.9,176.5 288.7,176.5C294.8,176.5 300.9,175.1 303.2,174L303.7,173.8L303.7,163C303.7,158.8 304.4,158.5 305.6,158.2L308.3,157.7L308.3,154.2L306.4,154.3L300.5,154.3M51.5,151.8C52.2,147.7 54.7,143.4 59.8,143.4C64.2,143.4 66.2,147.4 66.2,151.1C66.2,151.7 66.1,151.9 65.4,151.9L51.5,151.8ZM60.1,138.6C50.8,138.6 44.1,146.8 44.1,158C44.1,169.4 50.2,176.2 60.4,176.2C65.9,176.2 70.3,173.8 71.6,171.4L71.7,171.1L71.3,168L70.3,168.5C67.9,169.7 64.9,170.4 61.6,170.4C53.8,170.4 51,163.6 51,157.3L51,156.1L73.1,156.1L73.2,155.4C73.3,154.4 73.3,153.7 73.3,152.7C73.5,146 69.3,138.6 60.1,138.6ZM90.9,153.5C86.7,151.9 84.2,150.7 84.2,147.7C84.2,143.6 88,143.1 90.2,143.1C94.3,143.1 96.1,144.9 96.4,149.2L96.5,149.9L100.6,149.9L100.5,149C100.3,146 100.2,144.2 100.4,141.2L100.4,140.6L99.9,140.4C97.7,139.5 94,138.5 90.5,138.5C83.2,138.5 78.1,142.6 78.1,148.6C78.1,156.1 83.9,158.2 88.4,159.9C92.7,161.5 95.3,162.6 95.3,165.9C95.3,169.3 92.7,171.5 88.8,171.5C83.5,171.5 82.3,169.2 81.7,164.4L81.6,163.7L77.5,163.7L77.6,164.6C77.8,167.9 77.9,170.5 77.8,173.8L77.8,174.4L78.4,174.6C81.8,175.7 85.1,176.2 88.9,176.2C96,176.2 101.6,171.3 101.6,165.1C101.5,157.6 95.6,155.3 90.9,153.5M29.3,142.5C29.3,147.7 25.8,151 20.3,151C18.4,151 17.4,150.9 16.2,150.9L16.2,134.7C17.6,134.6 19.4,134.6 21,134.6C26.4,134.5 29.3,137.3 29.3,142.5M37.3,168.6C33.9,164.8 30.2,159.6 27.4,154.7C32.7,152.9 36.7,147.6 36.7,142.1C36.7,134.4 31.3,129.7 22.1,129.7C19.9,129.7 18,129.8 16.1,129.8C14.5,129.9 13.1,129.9 11.7,129.9C9,129.9 6.2,129.9 4.5,129.8L3.6,129.7L3.6,133.2L6.9,133.8C8,134 9.1,134.3 9.1,138.6L9.1,166.3C9.1,170.7 8.1,170.9 6.9,171.1L3.6,171.7L3.6,175.2L5.2,175.1C7.1,175 9.9,174.9 12.7,174.9C15.8,174.9 19.9,175 21.5,175.1L22.4,175.1L22.4,171.6L18.1,171C17,170.8 15.9,170.7 15.9,166.2L15.9,155.5C17.1,155.6 18.3,155.6 20,155.6C24.3,163.3 28.2,168.9 30.3,171.4C32.7,174.3 36.1,175.8 40.1,175.8C41.4,175.8 42.8,175.5 43.6,175.1L44.1,174.9L44.1,172L43.3,172C41.5,172 39.3,170.7 37.3,168.6" style="fill:rgb(0,204,187);fill-rule:nonzero;"/>
    </g>
</svg>
